branches/nugui/src/gui/icons/arrow_right.svg

<?xml version="1.0" encoding="UTF-8" standalone="no"?>
<!-- Created with Inkscape (http://www.inkscape.org/) -->

<svg
   xmlns:dc="http://purl.org/dc/elements/1.1/"
   xmlns:cc="http://creativecommons.org/ns#"
   xmlns:rdf="http://www.w3.org/1999/02/22-rdf-syntax-ns#"
   xmlns:svg="http://www.w3.org/2000/svg"
   xmlns="http://www.w3.org/2000/svg"
   xmlns:xlink="http://www.w3.org/1999/xlink"
   xmlns:inkscape="http://www.inkscape.org/namespaces/inkscape"
   version="1.0"
   width="100"
   height="100"
   id="svg2">
  <metadata
     id="metadata2566">
    <rdf:RDF>
      <cc:Work
         rdf:about="">
        <dc:format>image/svg+xml</dc:format>
        <dc:type
           rdf:resource="http://purl.org/dc/dcmitype/StillImage" />
      </cc:Work>
    </rdf:RDF>
  </metadata>
  <defs
     id="defs4">
    <linearGradient
       id="linearGradient3197">
      <stop
         id="stop3199"
         style="stop-color:#e4e1e1;stop-opacity:1"
         offset="0" />
      <stop
         id="stop3201"
         style="stop-color:#e4af00;stop-opacity:1"
         offset="1" />
    </linearGradient>
    <linearGradient
       id="linearGradient3189">
      <stop
         id="stop3191"
         style="stop-color:#000000;stop-opacity:1"
         offset="0" />
      <stop
         id="stop3193"
         style="stop-color:#000000;stop-opacity:0"
         offset="1" />
    </linearGradient>
    <radialGradient
       cx="50.059151"
       cy="48.853989"
       r="42.138134"
       fx="50.059151"
       fy="48.853989"
       id="radialGradient4237"
       xlink:href="#linearGradient3197"
       gradientUnits="userSpaceOnUse"
       gradientTransform="matrix(-1.7093778,0,0,1.91594,141.7618,8.2882328)" />
    <radialGradient
       cx="50.059151"
       cy="48.853989"
       r="42.138134"
       fx="50.059151"
       fy="48.853989"
       id="radialGradient4239"
       xlink:href="#linearGradient3189"
       gradientUnits="userSpaceOnUse"
       gradientTransform="matrix(-1.7093778,0,0,1.91594,141.7618,8.2882328)" />
  </defs>
  <path
     d="m 40.361352,45.167918 -3.122,-22.628092 61.004004,32.87633 -61.004004,32.876317 3.122,-21.972204 c -2.409572,0 -32.792812,-0.238652 -35.1398374,0 l 0,-21.152351 35.1398374,0 z"
     inkscape:connector-curvature="0"
     id="path4225"
     style="fill:#282828;fill-opacity:1;fill-rule:evenodd;stroke:none" />
  <g
     transform="matrix(-1.299845,0,0,1.299845,111.66954,-14.751161)"
     id="g4217">
    <path
       d="m 56.191798,40.582064 2.40182,-17.4083 -46.93175,25.292495 46.93175,25.292491 -2.40182,-16.90371 c 1.85373,0 25.22824,-0.1836 27.03386,0 l 0,-16.272976 -27.03386,0 z"
       inkscape:connector-curvature="0"
       id="path3242"
       style="fill:none;stroke:#000000;stroke-width:5.63700008;stroke-linecap:round;stroke-linejoin:round;stroke-miterlimit:4;stroke-opacity:1;stroke-dasharray:none;stroke-dashoffset:0" />
    <path
       d="M 56.191794,40.582064 58.593619,23.173764 11.661867,48.466259 58.593619,73.75875 56.191794,56.85504 c 1.853738,0 25.228243,-0.1836 27.033865,0 l 0,-16.272976 -27.033865,0 z"
       inkscape:connector-curvature="0"
       id="path3176"
       style="fill:url(#radialGradient4237);fill-opacity:1;fill-rule:evenodd;stroke:url(#radialGradient4239);stroke-width:4.0367074;stroke-linecap:round;stroke-linejoin:round;stroke-miterlimit:4;stroke-opacity:1;stroke-dashoffset:0" />
  </g>
</svg>

<?xml version="1.0" encoding="UTF-8" standalone="no"?>
<!-- Created with Inkscape (http://www.inkscape.org/) -->
<svg
   xmlns:svg="http://www.w3.org/2000/svg"
   xmlns="http://www.w3.org/2000/svg"
   xmlns:xlink="http://www.w3.org/1999/xlink"
   version="1.0"
   width="100"
   height="100"
   id="svg2">
  <defs
     id="defs4">
    <linearGradient
       id="linearGradient3197">
      <stop
         id="stop3199"
         style="stop-color:#e4e1e1;stop-opacity:1"
         offset="0" />
      <stop
         id="stop3201"
         style="stop-color:#e4af00;stop-opacity:1"
         offset="1" />
    </linearGradient>
    <linearGradient
       id="linearGradient3189">
      <stop
         id="stop3191"
         style="stop-color:#000000;stop-opacity:1"
         offset="0" />
      <stop
         id="stop3193"
         style="stop-color:#000000;stop-opacity:0"
         offset="1" />
    </linearGradient>
    <radialGradient
       cx="50.059151"
       cy="48.853989"
       r="42.138134"
       fx="50.059151"
       fy="48.853989"
       id="radialGradient4237"
       xlink:href="#linearGradient3197"
       gradientUnits="userSpaceOnUse"
       gradientTransform="matrix(-1.7093778,0,0,1.91594,141.7618,8.2882328)" />
    <radialGradient
       cx="50.059151"
       cy="48.853989"
       r="42.138134"
       fx="50.059151"
       fy="48.853989"
       id="radialGradient4239"
       xlink:href="#linearGradient3189"
       gradientUnits="userSpaceOnUse"
       gradientTransform="matrix(-1.7093778,0,0,1.91594,141.7618,8.2882328)" />
  </defs>
  <path
     d="M 40.361352,45.167918 L 37.239352,22.539826 L 98.243356,55.416156 L 37.239352,88.292473 L 40.361352,66.320269 C 37.95178,66.320269 7.56854,66.081617 5.2215146,66.320269 L 5.2215146,45.167918 L 40.361352,45.167918 L 40.361352,45.167918 z"
     id="path4225"
     style="fill:#282828;fill-opacity:1;fill-rule:evenodd;stroke:none" />
  <g
     transform="matrix(-1.299845,0,0,1.299845,111.66954,-14.751161)"
     id="g4217">
    <path
       d="M 56.191798,40.582064 L 58.593618,23.173764 L 11.661868,48.466259 L 58.593618,73.75875 L 56.191798,56.85504 C 58.045528,56.85504 81.420038,56.67144 83.225658,56.85504 L 83.225658,40.582064 L 56.191798,40.582064 z"
       id="path3242"
       style="fill:none;stroke:#000000;stroke-width:5.63700008;stroke-linecap:round;stroke-linejoin:round;stroke-miterlimit:4;stroke-dasharray:none;stroke-dashoffset:0;stroke-opacity:1" />
    <path
       d="M 56.191794,40.582064 L 58.593619,23.173764 L 11.661867,48.466259 L 58.593619,73.75875 L 56.191794,56.85504 C 58.045532,56.85504 81.420037,56.67144 83.225659,56.85504 L 83.225659,40.582064 L 56.191794,40.582064 z"
       id="path3176"
       style="fill:url(#radialGradient4237);fill-opacity:1;fill-rule:evenodd;stroke:url(#radialGradient4239);stroke-width:4.0367074;stroke-linecap:round;stroke-linejoin:round;stroke-miterlimit:4;stroke-dashoffset:0;stroke-opacity:1" />
  </g>
</svg>
